X:1
T: Mr. Morison of Bognie
C:William Marshall
R:Jig
Q:180
K:A
M:6/8
L:1/16
E2|A4G2 A4G2|A2B2c2 d4B2|c4A2 e2c2A2|F6 F4E2|A4G2 A4G2|A2B2c2 d4B2|c4e2 e2f2^d2|e6e4c2|
d2f2d2 B4d2|c2e2c2 A4c2|d4c2 B2c2A2|F6F4E2|A4G2 A4G2|A2B2c2 d4B2|c4A2 E2F2G2|A6A4fg|
a2g2f2 e2f2g2|a2g2b2 a4e2|a4e2 e2d2c2|c6B4g2|a2g2f2 e2f2g2|a2g2b2 a2g2f2|e2c2A2 E2F2G2|A6A4g2|
a4e2 c2d2e2|f4d2 B2c2d2|e4c2 A2B2c2|F6F4E2|A4G2 A4G2|A2B2c2 d4B2|c2B2A2 E2F2G2|A6A4||
